cartflows/admin-core/assets/images/plugins/suretriggers-emblem.svg

<svg width="150" height="150" viewBox="0 0 150 150" fill="none" xmlns="http://www.w3.org/2000/svg">
<rect width="150" height="150" rx="75" fill="white"/>
<path fill-rule="evenodd" clip-rule="evenodd" d="M75 150C116.421 150 150 116.421 150 75C150 33.5786 116.421 0 75 0C33.5786 0 0 33.5786 0 75C0 116.421 33.5786 150 75 150ZM75.323 37.5C69.3008 37.5 60.9668 40.944 56.7085 45.1923L45.143 56.7308H102.79L122.066 37.5H75.323ZM93.1943 104.808C88.936 109.056 80.602 112.5 74.5799 112.5H27.8367L47.1126 93.2692H104.76L93.1943 104.808ZM111.93 66.3462H35.526L31.9169 69.952C23.3713 77.6443 25.9058 83.6539 37.8736 83.6539H114.485L118.095 80.0481C126.557 72.4011 123.898 66.3462 111.93 66.3462Z" fill="#2D64FB"/>
</svg>

<svg width="150" height="150" fill="none" xmlns="http://www.w3.org/2000/svg"><rect width="150" height="150" rx="75" fill="#fff"/><path fill-rule="evenodd" clip-rule="evenodd" d="M75 150c41.421 0 75-33.579 75-75S116.421 0 75 0 0 33.579 0 75s33.579 75 75 75Zm.323-112.5c-6.022 0-14.356 3.444-18.614 7.692L45.142 56.731h57.647L122.066 37.5H75.323Zm17.871 67.308c-4.258 4.248-12.592 7.692-18.614 7.692H27.837l19.276-19.23h57.647l-11.566 11.538Zm18.736-38.462H35.526l-3.61 3.606c-8.545 7.692-6.01 13.702 5.958 13.702h76.611l3.61-3.606c8.462-7.647 5.803-13.702-6.165-13.702Z" fill="#2D64FB"/></svg>
